app/assets/images/country-squared/mz.svg

<?xml version="1.0" encoding="UTF-8"?>
<svg xmlns="http://www.w3.org/2000/svg" xmlns:xlink="http://www.w3.org/1999/xlink" width="384pt" height="384pt" viewBox="0 0 384 384" version="1.1">
<defs>
<clipPath id="clip1">
  <path d="M 0 0 L 383.988281 0 L 383.988281 120 L 0 120 Z M 0 0 "/>
</clipPath>
<clipPath id="clip2">
  <path d="M 0 119 L 383.988281 119 L 383.988281 132 L 0 132 Z M 0 119 "/>
</clipPath>
<clipPath id="clip3">
  <path d="M 0 131 L 383.988281 131 L 383.988281 252 L 0 252 Z M 0 131 "/>
</clipPath>
<clipPath id="clip4">
  <path d="M 0 251 L 383.988281 251 L 383.988281 264 L 0 264 Z M 0 251 "/>
</clipPath>
<clipPath id="clip5">
  <path d="M 0 263 L 383.988281 263 L 383.988281 383.988281 L 0 383.988281 Z M 0 263 "/>
</clipPath>
<clipPath id="clip6">
  <path d="M 0 0 L 253 0 L 253 383.988281 L 0 383.988281 Z M 0 0 "/>
</clipPath>
</defs>
<g id="surface1">
<g clip-path="url(#clip1)" clip-rule="nonzero">
<path style=" stroke:none;fill-rule:evenodd;fill:rgb(0%,60.392157%,0%);fill-opacity:1;" d="M 0 0 L 575.980469 0 L 575.980469 119.996094 L 0 119.996094 Z M 0 0 "/>
</g>
<g clip-path="url(#clip2)" clip-rule="nonzero">
<path style=" stroke:none;fill-rule:evenodd;fill:rgb(100%,100%,100%);fill-opacity:1;" d="M 0 119.964844 L 575.980469 119.964844 L 575.980469 131.980469 L 0 131.980469 Z M 0 119.964844 "/>
</g>
<g clip-path="url(#clip3)" clip-rule="nonzero">
<path style=" stroke:none;fill-rule:evenodd;fill:rgb(0%,0%,0%);fill-opacity:1;" d="M 0 131.980469 L 575.980469 131.980469 L 575.980469 251.976562 L 0 251.976562 Z M 0 131.980469 "/>
</g>
<g clip-path="url(#clip4)" clip-rule="nonzero">
<path style=" stroke:none;fill-rule:evenodd;fill:rgb(100%,100%,100%);fill-opacity:1;" d="M 0 251.976562 L 575.980469 251.976562 L 575.980469 263.992188 L 0 263.992188 Z M 0 251.976562 "/>
</g>
<g clip-path="url(#clip5)" clip-rule="nonzero">
<path style=" stroke:none;fill-rule:evenodd;fill:rgb(100%,79.215686%,0%);fill-opacity:1;" d="M 0 263.992188 L 575.980469 263.992188 L 575.980469 383.988281 L 0 383.988281 Z M 0 263.992188 "/>
</g>
<g clip-path="url(#clip6)" clip-rule="nonzero">
<path style=" stroke:none;fill-rule:evenodd;fill:rgb(100%,0%,0%);fill-opacity:1;" d="M 0 0 L 0 383.988281 L 252.007812 191.992188 Z M 0 0 "/>
</g>
<path style=" stroke:none;fill-rule:evenodd;fill:rgb(100%,79.215686%,0%);fill-opacity:1;" d="M 148.894531 249.722656 L 110.472656 221.59375 L 72.101562 249.726562 L 86.984375 204.496094 L 48.367188 176.699219 L 95.984375 176.875 L 110.484375 131.558594 L 125.03125 176.902344 L 172.613281 176.683594 L 133.984375 204.53125 Z M 148.894531 249.722656 "/>
<path style="fill-rule:evenodd;fill:rgb(100%,100%,100%);fill-opacity:1;stroke-width:1.25;stroke-linecap:round;stroke-linejoin:round;stroke:rgb(0%,0%,0%);stroke-opacity:1;stroke-miterlimit:4;" d="M 77.111591 167.908954 L 118.948478 167.908954 C 122.31385 171.687617 129.823943 173.228604 136.973882 167.867625 C 150.087024 160.682261 175.451301 167.908954 175.451301 167.908954 L 180.446221 162.601113 L 168.271841 122.64175 L 163.902761 117.95975 C 163.902761 117.95975 154.538762 112.338989 136.74362 114.210608 C 118.948478 116.088131 112.701875 113.590671 112.701875 113.590671 C 112.701875 113.590671 97.091273 115.46229 92.722194 117.64683 C 92.243957 118.036504 87.727273 122.64175 87.727273 122.64175 Z M 77.111591 167.908954 " transform="matrix(0.66161,0,0,0.66161,26.107228,107.085598)"/>
<path style="fill:none;stroke-width:1.25;stroke-linecap:round;stroke-linejoin:round;stroke:rgb(0%,0%,0%);stroke-opacity:1;stroke-miterlimit:4;" d="M 85.542734 157.612097 C 85.542734 157.612097 125.502097 152.617177 137.05654 167.914858 C 130.532442 172.378404 124.787693 172.744462 118.635557 168.227779 C 119.615648 166.592326 132.994477 152.617177 167.026063 157.299177 " transform="matrix(0.66161,0,0,0.66161,26.107228,107.085598)"/>
<path style="fill:none;stroke-width:1.25;stroke-linecap:butt;stroke-linejoin:miter;stroke:rgb(0%,0%,0%);stroke-opacity:1;stroke-miterlimit:4;" d="M 128.312478 117.652734 L 127.999557 161.668256 " transform="matrix(0.66161,0,0,0.66161,26.107228,107.085598)"/>
<path style="fill:none;stroke-width:1.25;stroke-linecap:butt;stroke-linejoin:miter;stroke:rgb(0%,0%,0%);stroke-opacity:1;stroke-miterlimit:4;" d="M 163.902761 118.272671 L 171.395142 153.237114 " transform="matrix(0.66161,0,0,0.66161,26.107228,107.085598)"/>
<path style="fill:none;stroke-width:1.25;stroke-linecap:round;stroke-linejoin:round;stroke:rgb(0%,0%,0%);stroke-opacity:1;stroke-miterlimit:4;" d="M 93.135485 117.71768 L 88.973051 135.754892 " transform="matrix(0.66161,0,0,0.66161,26.107228,107.085598)"/>
<path style="fill-rule:evenodd;fill:rgb(0%,0%,0%);fill-opacity:1;stroke-width:1.25;stroke-linecap:round;stroke-linejoin:round;stroke:rgb(0%,0%,0%);stroke-opacity:1;stroke-miterlimit:4;" d="M 49.940641 172.709037 L 59.782878 184.245768 C 60.93419 184.936555 61.961514 184.889322 62.988838 184.245768 L 77.566212 166.751739 L 83.688827 159.164892 C 84.639397 158.043101 84.940509 156.791419 84.857851 155.669628 L 96.565803 145.266496 C 97.522277 145.331442 98.09498 145.437717 99.051454 145.502662 C 97.917856 145.213359 97.091273 144.658367 97.982801 143.418494 L 100.604249 141.381558 L 102.647089 144.003005 C 102.647089 144.003005 99.730433 147.793477 99.441129 147.793477 L 96.229265 147.793477 L 90.10665 153.337484 L 92.781235 155.699149 L 96.813777 166.751739 L 101.773273 163.250571 L 98.561409 151.879157 L 105.563744 144.292309 L 102.936393 140.212534 L 104.689928 137.88039 C 104.689928 137.88039 128.908798 153.130839 138.243277 149.045159 C 138.491251 149.139626 138.804172 138.169694 138.804172 138.169694 C 138.804172 138.169694 113.729199 135.548247 113.144687 130.588751 C 112.560175 125.629256 118.682791 125.050648 118.682791 125.050648 L 116.061343 121.260176 L 116.645855 119.217337 L 121.014934 124.75544 L 130.933925 116.300681 L 189.25523 182.787441 C 192.437573 181.494429 193.116551 180.71508 193.335005 177.538641 C 193.252347 177.455983 136.182724 111.925698 136.182724 111.925698 L 140.557708 107.26141 C 141.419715 106.287224 141.720828 105.873932 141.720828 104.344755 L 148.427955 98.511443 C 150.447178 99.20223 151.734285 100.412583 152.802938 102.012611 L 171.241634 86.384296 C 171.725775 86.868437 173.201815 87.358483 174.205523 86.809396 L 204.682803 57.542469 L 171.465992 81.011509 L 170.296968 80.137694 C 170.296968 79.163507 171.501417 78.927341 170.296968 77.221038 C 169.003957 75.674148 167.085104 78.679366 166.7958 78.679366 C 166.506496 78.679366 161.989813 77.085242 160.997914 75.060115 L 160.673185 80.432902 L 152.212522 88.303149 L 145.800603 88.013845 L 136.466124 97.053115 L 135.303004 100.548379 L 136.761332 103.465035 C 136.761332 103.465035 131.801837 107.840018 131.801837 107.550714 C 131.801837 107.26141 130.798129 106.257703 130.7568 106.133715 L 135.007796 102.301915 L 135.592308 99.674563 L 134.17531 97.460503 C 133.744306 97.773423 128.300669 103.465035 128.011365 102.886427 C 127.52132 102.343244 112.259063 85.097189 112.259063 85.097189 L 113.132879 81.891229 L 103.219792 71.098423 C 99.606446 69.852645 93.891218 69.640095 92.722194 77.516246 C 91.812953 79.364248 84.267435 77.80555 84.267435 77.80555 L 80.181755 78.679366 L 57.149622 111.341186 L 69.979365 126.79828 L 96.223361 93.551948 L 97.002711 84.134811 L 102.511293 90.292851 C 104.347487 90.529017 106.095119 90.552634 107.760092 89.708339 L 123.305749 107.066573 L 120.719726 109.593554 C 121.593542 110.561836 122.195766 111.187677 123.069582 112.15596 C 123.943398 111.571448 124.781789 110.874757 125.655605 110.290245 C 125.944909 110.67992 126.434954 111.41794 126.724258 111.807614 C 125.419439 112.516114 124.510198 113.460779 123.205378 114.169279 C 121.121209 112.811322 119.10789 111.116827 119.261398 108.42453 L 110.511431 115.716169 L 110.222128 117.174497 L 84.267435 138.754206 L 81.935291 139.04351 L 81.350779 145.750637 L 98.266201 131.757775 L 98.266201 129.714935 L 100.013833 131.173263 L 113.132879 120.675665 C 113.132879 120.675665 114.012599 121.838784 113.717391 121.838784 C 113.428087 121.838784 102.056673 132.336383 102.056673 132.336383 L 101.761465 133.505407 L 99.724529 135.253039 L 98.555505 134.379223 L 82.809107 148.377989 L 80.476963 148.377989 L 71.726996 157.127956 C 69.471607 157.322793 67.517329 157.55896 65.604381 158.875588 L 49.934737 172.709037 Z M 49.940641 172.709037 " transform="matrix(0.66161,0,0,0.66161,26.107228,107.085598)"/>
</g>
</svg>

<?xml version="1.0" encoding="UTF-8" standalone="no"?>
<!-- Created with Sodipodi ("http://www.sodipodi.com/") -->
<svg id="svg912" xmlns:rdf="http://www.w3.org/1999/02/22-rdf-syntax-ns#" xmlns="http://www.w3.org/2000/svg" height="512" width="512" version="1.1" xmlns:cc="http://creativecommons.org/ns#" xmlns:dc="http://purl.org/dc/elements/1.1/">
 <metadata id="metadata4218">
  <rdf:RDF>
   <cc:Work rdf:about="">
    <dc:format>image/svg+xml</dc:format>
    <dc:type rdf:resource="http://purl.org/dc/dcmitype/StillImage"/>
   </cc:Work>
  </rdf:RDF>
 </metadata>
 <defs id="defs914">
  <clipPath id="clipPath4451" clipPathUnits="userSpaceOnUse">
   <rect id="rect4453" fill-opacity="0.67" height="496.06" width="496.06" y="-.000080621" x="0"/>
  </clipPath>
 </defs>
 <g id="flag" clip-path="url(#clipPath4451)" transform="matrix(1.0321 0 0 1.0321 0 .000083212)">
  <rect id="rect937" fill-rule="evenodd" height="155.02" width="744.09" y="-0.00003" x="0" stroke-width="1pt" fill="#009a00"/>
  <rect id="rect935" fill-rule="evenodd" height="15.52" width="744.09" y="154.98" x="0" stroke-width="1pt" fill="#fff"/>
  <rect id="rect934" fill-rule="evenodd" height="155.02" width="744.09" y="170.5" x="0" stroke-width="1pt"/>
  <rect id="rect933" fill-rule="evenodd" height="15.52" width="744.09" y="325.52" x="0" stroke-width="1pt" fill="#fff"/>
  <rect id="rect931" fill-rule="evenodd" height="155.02" width="744.09" y="341.04" x="0" stroke-width="1pt" fill="#ffca00"/>
  <path id="path932" d="m0-0.000076294v496.06l325.56-248.03-325.56-248.03z" fill-rule="evenodd" stroke-width="1pt" fill="#f00"/>
  <g id="g938" transform="matrix(.85471 0 0 .85471 33.727 138.34)">
   <polygon id="polygon916" fill="#ffca00" fill-rule="evenodd" transform="matrix(.96989 .020185 -.020185 .96989 6.077 3.6535)" d="m 189.54603,214.56867 -60.76034,-42.57244 -58.855159,45.07437 21.71282,-70.94213 -61.055514,-42.04584 74.179603,-1.2722 21.12078,-71.060124 24.13269,70.155864 74.10887,-1.87174 -59.26477,44.63092 z" stroke-width="1pt" points="189.55 214.57 128.79 172 69.93 217.07 91.643 146.13 30.588 104.08 104.77 102.81 125.89 31.75 150.02 101.91 224.13 100.03 164.86 144.66"/>
   <path id="path919" stroke-linejoin="round" d="m77.112 167.91h41.834c3.366 3.776 10.876 5.316 18.029-0.045 13.112-7.18 38.479 0.045 38.479 0.045l4.995-5.307-12.176-39.961-4.371-4.683s-9.365-5.619-27.161-3.746c-17.795 1.873-24.039-0.624-24.039-0.624s-15.609 1.873-19.98 4.058c-0.4805 0.389-4.9951 4.995-4.9951 4.995l-10.615 45.268z" fill-rule="evenodd" stroke="#000" stroke-linecap="round" stroke-width="1.25" fill="#fff"/>
   <path id="path918" stroke-linejoin="round" d="m85.542 157.61s39.96-4.995 51.512 10.302c-6.524 4.464-12.268 4.832-18.42 0.313 0.98-1.633 14.361-15.61 48.39-10.927" stroke="#000" stroke-linecap="round" stroke-width="1.25" fill="none"/>
   <path id="path920" d="m128.31 117.65-0.31 44.02" stroke="#000" stroke-width="1pt" fill="none"/>
   <path id="path921" d="m163.9 118.27 7.493 34.966" stroke="#000" stroke-width="1pt" fill="none"/>
   <path id="path922" stroke-linejoin="round" d="m93.134 117.72-4.1583 18.032" stroke="#000" stroke-linecap="round" stroke-width="1.25" fill="none"/>
   <path id="path917" stroke-linejoin="round" d="m49.942 172.71 9.8382 11.535c1.1553 0.689 2.1815 0.645 3.2077 0l14.58-17.496 6.1238-7.582c0.9482-1.123 1.2509-2.376 1.1664-3.499l11.707-10.403c0.9577 0.066 1.5281 0.174 2.4858 0.239-1.1315-0.293-1.9617-0.844-1.0708-2.084l2.6243-2.041 2.041 2.624s-2.9156 3.791-3.2072 3.791h-3.2077l-6.1238 5.541 2.677 2.366 4.03 11.048 4.9577-3.5-3.2081-11.372 6.9991-7.582-2.625-4.083 1.75-2.333s24.222 15.25 33.554 11.168c0.252 0.091 0.564-10.876 0.564-10.876s-25.078-2.624-25.662-7.582c-0.583-4.957 5.541-5.54 5.541-5.54l-2.625-3.791 0.584-2.042 4.374 5.541 9.915-8.457 58.321 66.487c3.184-1.291 3.864-2.07 4.083-5.249-0.082-0.08-57.155-65.612-57.155-65.612l4.374-4.665c0.862-0.972 1.165-1.385 1.166-2.917l6.707-5.8318c2.017 0.6929 3.303 1.9018 4.374 3.4988l18.439-15.627c0.486 0.486 1.962 0.972 2.964 0.4254l30.48-29.264-33.22 23.468-1.17-0.875c0-0.9721 1.205-1.2125 0-2.9161-1.291-1.5491-3.208 1.4581-3.499 1.4581-0.292 0-4.809-1.5964-5.799-3.6188l-0.325 5.3684-8.457 7.8735-6.415-0.2916-9.332 9.0398-1.166 3.4989 1.458 2.917s-4.958 4.374-4.958 4.082c0-0.291-1.002-1.289-1.045-1.418l4.253-3.831 0.583-2.6243-1.419-2.2158c-0.43 0.3125-5.871 6.0071-6.163 5.4231-0.49-0.54-15.75-17.786-15.75-17.786l0.874-3.2077-9.914-10.79c-3.6145-1.2479-9.3318-1.458-10.498 6.4154-0.9083 1.8493-8.4567 0.2916-8.4567 0.2916l-4.0825 0.8749-23.037 32.66 12.831 15.455 26.245-33.243 0.7791-9.4176 5.5068 6.1573c1.836 0.2359 3.585 0.2566 5.249-0.5832l15.549 17.356-2.589 2.526c0.875 0.972 1.477 1.593 2.352 2.565 0.875-0.583 1.71-1.283 2.585-1.867 0.292 0.39 0.778 1.129 1.07 1.518-1.303 0.709-2.217 1.653-3.52 2.362-2.085-1.359-4.098-3.051-3.945-5.744l-8.748 7.29-0.292 1.458-25.953 21.579-2.3329 0.292-0.5832 6.707 16.913-13.997v-2.042l1.7497 1.458 13.122-10.497s0.875 1.166 0.584 1.166c-0.292 0-11.665 10.498-11.665 10.498l-0.291 1.166-2.0416 1.75-1.1665-0.875-15.747 13.997h-2.3328l-8.7483 8.749c-2.2564 0.196-4.2116 0.435-6.1238 1.749l-15.67 13.835z" fill-rule="evenodd" stroke="#000" stroke-linecap="round" stroke-width="1.25"/>
  </g>
 </g>
</svg>
